X:1
T:Lilla, ver la foresta
T:Benedetto Ferrari
T:Source : Musiche Varie a voce sola---Libro secondo---Venetia---B.Magni---1637. Editor : André Vierendeels (05/01/17).
T:Notes : Original clefs : C4, F4 Original note values have been halved in 3-beat measures Figures in BC are notated in original print m 15 in Tenor : "D" notated as"C" in original print m 18 in BC : "A" notated as "F" in original print
T:Lilla, ver la foresta
T:©
T:©
T:©
C:Benedetto Ferrari
Z:©
%%score 1 2
L:1/8
Q:1/4=104
M:4/4
K:F
V:1 treble-8 nm="Tenor" snm="T"
V:2 bass nm="MusicXML Part"
V:1
 z2 G4 G2 | z GG^F F G2 G | z d/d/ dd/c/ c/d/ _e2 e | z _eee e3 d | d_e f4 f2 | z B B3 B BB/A/ | %6
w: Lil- la,|ver la fo- re- * sta|s'in ca- mi- na fes- to- * * sa,|di- len- te'in tan- to|re- * * sta,|o- gni'a- ni- ma a- mo-|
w: Lie- to|l'at- ten- de'il col- * le,|per fio- rir all' ar- ri- * * vo,|per mi- rar- la s'e-|sto- * * le|l'el- ce, il fag- gi- o|
w: A- man-|ti non cu- ri- a- mo|gli'al- lon- ta- na- ti ra- * * i,|per cui spes- so ver-|sia- * * mo|pian- ti, so- spi- ri, e|
 A3 B c3 c | z2 z c cc c>B | Bc d4 d2 | z ^F F>F FF/E/ G2- | G2 ^F2- G4 | %11
w: ro- * * sa,|do- len- te'in tan- to|res- * * ta,|o- gni'a- ni- ma a- mo- ro-|* sa. _|
w: e l'o- li- vo,|la fron- do- sa fa-|mi- gli- * a|tut- ta gioi- sc'e ri- ve- ren-|te co- le|
w: la- * * i,|sti- a- si Lil- la|frà gle- * be,|che li- ce'à u- na bel- lez-|* za, _|
[M:6/4] z2 d2 e2 f2 ^c2 d2 | e6 d2 f2 e2 | d2 c3 B A2 AB c2- | d4 BA A2 G4 | F6 A2 =B2 c2 | %16
w: O va- ghez- za'in sen-|sa- ta? De la|Reg- gia del cor pas- * *|* s'à le sel- *|ve, la- scia gli'a-|
w: fat- to ru- sti- co'il|ciel fat- to ru-|sti- co il cliel, sel- * vag-|* gi- o il So-|le, fat- to ru-|
w: a- spra, ed' al- pi-|na stan- za sel-|vag- gia, e com- pa- * *|* gni- a Fe- ri-|na, stan- za sel-|
 c2 =B4 A6 | ^C2 C2 D2 E2 D3 D | D4 ^C2 D6 | d2 e2 f2 f2 e4 | d6 F2 G2 A2 | B6 B2 c2 d2 | %22
w: man- * ti|e v'à tro- var _ le|bel- ve, _|la- scia gli'a- man- *|ti è v'à tro-|var, è v'à tro-|
w: sti- co'il ciel,|sel- vag- * * gio il|So- le, _|fat- to ru- sti- co'il|ciel, sel- vag- gio'il|So- le, sel- vag-|
w: vag- gi- a,|e com- pa- gni- a Fe-|ri- na, _|stan- za sel- vag- gi-|a, e com- pa-|gni- a'e com- pa-|
 _ed ed ed ed ed ed | _ed efgG A6 |[M:3/4] !fermata!G6 |] %25
w: |* * * * var le bel-|ve.|
w: |* * * * gio il So-|le.|
w: gni- * * * * * * * * * * *|* * * * a Fe- ri-|na.|
V:2
 G,,8- | G,,8 | G,4 _E,4- | E,8 |"^4 3" B,,8 | D,8 | F,8- | F,8 | ^F,8 | =B,,8 | A,,4 G,,4 | %11
[M:6/4] G,6 D,6 |"^4#" A,6 D,4 E,2 |"^5 6" F,4 G,2 A,6 | B,6 C2 C,4 | F,4 E,2 D,6 | %16
 E,2 E,,4 A,,4 G,,2 | A,,6 G,,6 | A,,6 D,,6 | F,2 G,4 A,2 A,,4 | D,4 C,2 B,,4 A,,2 | %21
 G,,2 G,2 F,2 _E,4 D,2 | C,2 B,,2 A,,2 G,,2 F,,2 _E,,2 | D,,2 C,,4 D,,6 |[M:3/4] !fermata!G,,6 |] %25

